X:174
M:6/8
L:1/8
K:D
|: (a | a)f^d eBG | EGB E2(g | g)ec fdA | FAF D2A | Bge caf | Bge cBA | Bdg afd | gec d2 :|

